packages/icons/src/SVG/guide-open.svg

<svg width="12" height="12" viewBox="0 0 12 12" fill="none" xmlns="http://www.w3.org/2000/svg">
<path d="M2 3H4.5V4H2V3Z" fill="#4C505B"/>
<path d="M10 3H7.5V4H10V3Z" fill="#4C505B"/>
<path d="M7.5 5H10V6H7.5V5Z" fill="#4C505B"/>
<path d="M4.5 5H2V6H4.5V5Z" fill="#4C505B"/>
<path d="M7.5 7H10V8H7.5V7Z" fill="#4C505B"/>
<path d="M4.5 7H2V8H4.5V7Z" fill="#4C505B"/>
<path fill-rule="evenodd" clip-rule="evenodd" d="M12 1H7C6.57661 1 6.22027 1.1378 5.95881 1.38207C5.70737 1.16234 5.37056 1 5 1H0V10.5H5C5.08738 10.5 5.21662 10.5487 5.33395 10.6661C5.45127 10.7834 5.5 10.9126 5.5 11H6.5C6.5 10.844 6.5473 10.7185 6.61534 10.64C6.67326 10.5731 6.77966 10.5 7 10.5H12V1ZM5 2H1V9.5H5C5.37056 9.5 5.70737 9.66234 5.95881 9.88207C6.22027 9.6378 6.57661 9.5 7 9.5H11V2H7C6.77966 2 6.67326 2.07314 6.61534 2.13997C6.5473 2.21848 6.5 2.344 6.5 2.5V8.5H5.5V2.5C5.5 2.41262 5.45127 2.28338 5.33395 2.16605C5.21662 2.04873 5.08738 2 5 2Z" fill="#4C505B"/>
</svg>

<!-- Generated by IcoMoon.io -->
<svg version="1.1" xmlns="http://www.w3.org/2000/svg" width="12" height="12" viewBox="0 0 12 12">
<title>guide-open</title>
<path d="M2 3h2.5v1h-2.5v-1z"></path>
<path d="M10 3h-2.5v1h2.5v-1z"></path>
<path d="M7.5 5h2.5v1h-2.5v-1z"></path>
<path d="M4.5 5h-2.5v1h2.5v-1z"></path>
<path d="M7.5 7h2.5v1h-2.5v-1z"></path>
<path d="M4.5 7h-2.5v1h2.5v-1z"></path>
<path d="M12 1v9.5h-5c-0.22 0-0.327 0.073-0.385 0.14-0.068 0.079-0.115 0.204-0.115 0.36h-1c0-0.087-0.049-0.217-0.166-0.334s-0.247-0.166-0.334-0.166h-5v-9.5h5c0.371 0 0.707 0.162 0.959 0.382 0.261-0.244 0.618-0.382 1.041-0.382h5zM5 2h-4v7.5h4c0.371 0 0.707 0.162 0.959 0.382 0.261-0.244 0.618-0.382 1.041-0.382h4v-7.5h-4c-0.22 0-0.327 0.073-0.385 0.14-0.068 0.079-0.115 0.204-0.115 0.36v6h-1v-6c0-0.087-0.049-0.217-0.166-0.334s-0.247-0.166-0.334-0.166z"></path>
</svg>
